!!!!SEGMENT: artfugue-003.krn
!!!COM: Bach, Johann Sebastian
!!!CDT: 1685/03/31-1750/07/28
!!!OPR@@DE: Die Kunst der Fuge
!!!OPR@EN: The Art of the Fugue
!!!OTL: Contrapunctus 3, a 4.
!!!SCA: BWV 1080
!!!voices: 4
!!!AGN: Simple fugue
**kern	**kern	**kern	**kern
*part4	*part3	*part2	*part1
*staff4	*staff3	*staff2	*staff1
*I"	*I"	*I"	*I"
*clefF4	*clefC4	*clefC3	*clefC1
*mclefF4	*mclefGv2	*mclefG2	*mclefG2
*k[b-]	*k[b-]	*k[b-]	*k[b-]
*d:	*d:	*d:	*d:
*M2/2	*M2/2	*M2/2	*M2/2
*met(c|)	*met(c|)	*met(c|)	*met(c|)
*mmet(c|)	*mmet(c|)	*mmet(c|)	*mmet(c|)
*MM100	*MM100	*MM100	*MM100
=1	=1	=1	=1
1r	2d	1r	1r
.	2A	.	.
=2	=2	=2	=2
1r	2c	1r	1r
.	2e	.	.
=3	=3	=3	=3
1r	2f	1r	1r
.	4e	.	.
.	4d	.	.
=4	=4	=4	=4
1r	[2c#X	1r	1r
.	8c#L]	.	.
.	8A	.	.
.	8Bn	.	.
.	8c#J	.	.
=5	=5	=5	=5
1r	4d	2a	1r
.	2cn	.	.
.	.	2d	.
.	8BnL	.	.
.	8B-XJ	.	.
=6	=6	=6	=6
1r	8AL	2f	1r
.	8G#X	.	.
.	8A	.	.
.	8BnJ	.	.
.	4c	2a	.
.	[4c#X	.	.
=7	=7	=7	=7
1r	4c#]	2b-	1r
.	8dL	.	.
.	8eJ	.	.
.	4f	4a	.
.	[4e	4g	.
=8	=8	=8	=8
1r	8eL]	[2f	1r
.	8A	.	.
.	8Bn	.	.
.	8c#XJ	.	.
.	8dL	8fL]	.
.	8c#	8e	.
.	8d	8f	.
.	8eJ	8gJ	.
!!LO:LB:g=original
=9	=9	=9	=9
1r	8fL	4a	2dd
.	8e	.	.
.	8d	2g	.
.	8c#XJ	.	.
.	4d	.	2a
.	4D	8f#XL	.
.	.	8fnJ	.
=10	=10	=10	=10
1r	8AL	8eL	2cc
.	8BnJ	8d#X	.
.	[4c	8e	.
.	.	8f#XJ	.
.	8cL]	4g	2ee
.	8e	.	.
.	8d	[4g#X	.
.	8cJ	.	.
=11	=11	=11	=11
1r	8BnL	4g#]	2ff
.	8BBn	.	.
.	8C	8aL	.
.	8DJ	8bnJ	.
.	8EL	4cc	4ee
.	8F#X	.	.
.	8G#X	[4bn	4dd
.	8EJ	.	.
=12	=12	=12	=12
1r	4A/	8bL]	[2cc#X
.	.	8e	.
.	4Gn	8f	.
.	.	8gJ	.
.	4Fn	4a	8cc#L]
.	.	.	8a
.	4E	[4g	8bn
.	.	.	8cc#J
=13	=13	=13	=13
1r	8DL	8gL]	[2dd
.	8d	8f#X	.
.	8e	8g	.
.	8f#XJ	8aJ	.
.	4g	4b-	8ddL]
.	.	.	8dd
.	4fn	4a	8ee
.	.	.	8ffJ
=14	=14	=14	=14
1r	4e	[2g	8ggL
.	.	.	8bn
.	4d	.	8cc#X
.	.	.	8ddJ
.	4c#X	8gL]	4ee
.	.	8e	.
.	4d	8f	[4dd
.	.	8gJ	.
!!LO:LB:g=original
=15	=15	=15	=15
2A	2e	4.a	8ddL]
.	.	.	8cc#XJ
.	.	.	2ccn
.	.	8g	.
2D	[2d	8f#XL	.
.	.	8eJ	.
.	.	[4fn	8bnL
.	.	.	8b-XJ
=16	=16	=16	=16
2F	4d]	2f_	8aL
.	.	.	8g#X
.	8cL	.	8a
.	8BnJ	.	8bnJ
2A	4A	8fL]	4cc
.	.	8a	.
.	4r	8g	[4cc#X
.	.	8fJ	.
=17	=17	=17	=17
2B-	4r	8gL	4cc#]
.	.	8e	.
.	[4d	8f	8ddL
.	.	8gJ	8eeJ
4A	8dL]	[2a	4ff
.	8Bn	.	.
4G	8c#X	.	[4ee
.	8eJ	.	.
=18	=18	=18	=18
[2F	4A	8aL]	8eeL]
.	.	8c#X	8a
.	4r	8d	8bn
.	.	8eJ	8cc#XJ
8FL]	2r	8fL	4.dd
8E	.	8g	.
8F	.	8a	.
8GJ	.	8b-J	8ee
=19	=19	=19	=19
8AL	1r	4e	4cc#X
8AAJ	.	.	.
8r	.	2a	4ff
8AA	.	.	.
8BB-L	.	.	4.dd
8AA	.	.	.
8BBn	.	8g#XL	.
8C#XJ	.	[8gnJ	8ee
=20	=20	=20	=20
8DL	1r	8gL]	4a
8DDJ	.	8f#XJ	.
8r	.	4b-	2dd
8D	.	.	.
8E-XL	.	4.g	.
8D	.	.	.
8En	.	.	8cc#XL
8F#XJ	.	8a	[8ccnJ
!!LO:LB:g=original
=21	=21	=21	=21
8GL	1r	4d	8ccL]
8GGJ	.	.	8bnJ
8r	.	2g	4ee-X
8GG	.	.	.
8AA-XL	.	.	4.cc
8GG	.	.	.
8AAn	.	8f#XL	.
8BBnJ	.	[8fnJ	8dd
=22	=22	=22	=22
8CL	1r	8fL]	4g
8CCJ	.	8eJ	.
8r	.	4a-X	2cc
8C	.	.	.
8D-XL>	.	4.f	.
8C	.	.	.
8Dn	.	.	8bnL
8EJ	.	8g	[8b-XJ
=23	=23	=23	=23
8FL	1r	4c	8b-L]
8FFJ	.	.	8aJ
8r	.	2cc	2aa
8F	.	.	.
8F#XL	.	.	.
8GJ	.	.	.
8r	.	8bnL	[4dd
8GG	.	8b-XJ	.
=24	=24	=24	=24
8FFL	1r	8aL	8ddL]
8EE	.	8g#X	8eeJ
8DD	.	8a	[4ff
8DJ	.	8bnJ	.
8AAL	.	4cc	8ffL]
8B-	.	.	8ggJ
8A	.	[4cc#X	[4aa
8GJ	.	.	.
=25	=25	=25	=25
8FL	1r	4cc#]	8aaL]
8EJ	.	.	8ggJ
[4D	.	8ddL	2bb-
.	.	8eeJ	.
8DL]	.	8ffL	.
8GJ	.	8ddJ	.
4C#X	.	[4ee	8aaL
.	.	.	8ggJ
=26	=26	=26	=26
4D	1r	8eeL]	[2ff
.	.	8a	.
8r	.	8bn	.
8AA	.	8cc#XJ	.
8BB-L	.	[2dd	8ffL]
8B-	.	.	8ee
8A	.	.	8ff#X
8GJ	.	.	8ggJ
!!LO:LB:g=original
=27	=27	=27	=27
4.F#Xt	1r	8ddL]	4aa
.	.	8cc	.
.	.	8b-	[4dd
16ELL	.	8aJ	.
16F#JJ	.	.	.
8GL	.	[2b-	8ddL]
8Fn	.	.	8gg
8E	.	.	8cc#X
8DJ	.	.	8ddJ
=28	=28	=28	=28
4.C#Xt	1r	4b-]	8eeL
.	.	.	8ff
.	.	[4a	8gg
16BBnLL	.	.	8eeJ
16C#JJ	.	.	.
8DL	.	8aL]	[2ff
8Cn	.	8dd	.
8BB	.	8g#X	.
8AAJ	.	8aJ	.
=29	=29	=29	=29
4GG#X	4r	[2bn	8ffL]
.	.	.	8ff
4G#X	2e	.	8ee
.	.	.	8ddJ
4A	.	8bL]	4.cc
.	.	16aL	.
.	.	16gJJ	.
8AAL	[4A	8f#XL	.
8BBnJ	.	8fnJ	8dd
=30	=30	=30	=30
4C	8AL]	8eL	4ee
.	8BnJ	8d#X	.
8r	[4c	8e	4r
8AA	.	8f#XJ	.
8EL	8cL]	4g	2r
8F	8dJ	.	.
8E	[4e	[4g#X	.
8DJ	.	.	.
=31	=31	=31	=31
8CL	8eL]	4g#]	1r
8BBnJ	8dJ	.	.
[4AA	2f	8aL	.
.	.	8bnJ	.
8AAL]	.	8ccL	.
8DJ	.	8aJ	.
4GG#X	8eL	[4b	.
.	8dJ	.	.
!!LO:LB:g=original
=32	=32	=32	=32
8AAL	[2c	8bL]	1r
8C	.	8e	.
8D	.	8f#X	.
8EJ	.	8g#XJ	.
4F	8cL]	[2a	.
.	8Bn	.	.
8EL	8c#X	.	.
8DJ	8dJ	.	.
=33	=33	=33	=33
8C#XL	[2e	8aL]	1r
8AA	.	8b-X	.
8BBn	.	8a	.
8C#J	.	8gnJ	.
8DL>	8eL]	4f#X	.
8E	8A	.	.
8D	8Bn	[4fn	.
8CnJ	8cJ	.	.
=34	=34	=34	=34
8BBnL	[2d	8fL]	1r
8GG	.	8a	.
8AA	.	8g	.
8BBJ	.	8fJ	.
8CL	8dL]	4e	.
8D	8G	.	.
8C	8A	[4e-X	.
8BB-XJ	8B-XJ	.	.
=35	=35	=35	=35
8AAL	8cL	8e-L]	1r
8GG	8B-J	8g	.
8AA	2c	8f	.
8FFJ	.	8e-XJ	.
8BB-L	.	4.d	.
8AA	.	.	.
8BB-	[4F	.	.
8CJ	.	8en	.
=36	=36	=36	=36
4.D	8FL]	8fL	1r
.	8GJ	8e	.
.	[4A	8f	.
8E	.	8gJ	.
4.F	8AL]	8aL	.
.	8B-J	8gJ	.
.	[4c	[4a	.
8D	.	.	.
=37	=37	=37	=37
4.G	8cL]	8aL]	1r
.	8B-J	8g	.
.	2d	8b-	.
8F	.	8aJ	.
8EL	.	8gL	.
8D	.	8fJ	.
8E	8cL	[4g	.
8CJ	8B-J	.	.
!!LO:LB:g=original
=38	=38	=38	=38
4F	[2A	8gL]	1r
.	.	8c	.
4E	.	8d	.
.	.	8eJ	.
2D	8AL]	8fL	.
.	8G	8eJ	.
.	8A	[4f	.
.	8BnJ	.	.
=39	=39	=39	=39
4C	8cL	8fL]	1r
.	8GJ	16eL	.
.	.	16dJJ	.
8r	2c	4e	.
8C	.	.	.
8D-XL>	.	4.f	.
8C	.	.	.
8Dn	8BnL	.	.
8EJ	[8B-XJ	8g	.
=40	=40	=40	=40
8FL	8B-L]	4c	1r
8FFJ	8AJ	.	.
8r	4f	2a	.
8F	.	.	.
8BB-L	4.d	.	.
8AA	.	.	.
8BBn	.	8g#XL	.
8C#XJ	8e	[8gnJ	.
=41	=41	=41	=41
8DL	4A	8gL]	1r
8DDJ	.	16f#XL	.
.	.	16eJJ	.
8r	2d	4f#	.
8D	.	.	.
8E-XL	.	4.g	.
8D	.	.	.
8En	8c#XL	.	.
8F#XJ	[8cnJ	8a	.
=42	=42	=42	=42
8GL<	8cL]	4d	1r
8GGJ	8BnJ	.	.
8r	4g	2bn	.
8G	.	.	.
8CL	4.e	.	.
8BBn	.	.	.
8C#X	.	8a#XL	.
8D#XJ	8f#X	[8anJ	.
!!LO:LB:g=original
=43	=43	=43	=43
4.E	4.Bn	8aL]	2ee
.	.	8g#XJ	.
.	.	2gn	.
8E	8c#X	.	.
8FL	4.d	.	2a
8GJ	.	.	.
[4A	.	8f#XL	.
.	8d	8fnJ	.
=44	=44	=44	=44
4.A]	8cnL	8eL	2cc
.	8Bn	8d#X	.
.	8c	8e	.
8A	8AJ	8f#XJ	.
8GL	4.B	4g	2ee
8F#XJ	.	.	.
[4E	.	[4g#X	.
.	8c	.	.
=45	=45	=45	=45
8EL]	8d	4g#]	2ff
8Fn	4c	.	.
8E	.	8aL	.
8DJ	4Bn	8bnJ	.
4C	.	4cc	4ee
.	4A	.	.
4E	.	[4b	4dd
.	8G#X	.	.
=46	=46	=46	=46
4AA	4A	8bL]	[2cc
.	.	8e	.
4r	4r	8f#X	.
.	.	8g#XJ	.
2r	2r	8aL	8ccL]
.	.	8gn	8a
.	.	8fn	8bn
.	.	8eJ	8cc#XJ
=47	=47	=47	=47
1r	8r	8fL	8ddL
.	8DL	8f#X	8ccn
.	8E	8g	8bn
.	8F#XJ	[8aJ	8aJ
.	4G	8aL]	4b
.	.	8g	.
.	8AL	8fn	[4cc
.	8FnJ	8eJ	.
=48	=48	=48	=48
1r	8GL	8dL	8ccL]
.	8f	8g	8bn
.	8e	8a	8cc
.	8dJ	8bnJ	8ddJ
.	8cL	8ccL	8eeL
.	8C	8e	8dd
.	8D	8f	8cc
.	8EJ	[8gJ	8b-XJ
!!LO:LB:g=original
=49	=49	=49	=49
1r	4F	8gL]	4a
.	.	8f	.
.	8GL	8e-X	[4b-
.	8E-XJ	8dJ	.
.	8FL	8cL	8b-L]
.	8e-X	8f	8a
.	8d	8g	8b-
.	8cJ	8aJ	8ccJ
=50	=50	=50	=50
1r	8B-L	8b-L	8ddL
.	8BB-	8d	8cc
.	8C	8e-X	8b-
.	8DJ	8fJ	8a-XJ
.	8E-XL	8B-L	[2g
.	8F	8Bn	.
.	8E-	8c	.
.	8DJ	8dJ	.
=51	=51	=51	=51
2C	8CL	8e-XL	8gL]
.	8D	8d	8f#X
.	8En	8c	8g
.	8F#XJ	8e-J	8aJ
2GG	4G	8dL	8b-L
.	.	8f#XJ	8a
.	8r	[4g	8b-
.	8E-X	.	8ccJ
=52	=52	=52	=52
2BB-	4D	8gL]	8ddL
.	.	8aJ	8cc#X
.	8r	[4b-	8dd
.	8G	.	8eeJ
2D	8FL	8b-L]	4ff
.	8B-J	8dd	.
.	[4A/	8cc	[4ff#X
.	.	8b-J	.
=53	=53	=53	=53
2E-X	4A/]	8ccL	4ff#]
.	.	8a	.
.	[4G	8b-	8ggL
.	.	8ccJ	8aaJ
4D	8GL]	[2dd	4bb-
.	8E	.	.
4C	8F#X	.	[4aa
.	8AJ	.	.
=54	=54	=54	=54
[2BB-	8DL	2dd_	8aaL]
.	8F#X	.	8dd
.	8G	.	8ee
.	8AJ	.	8ff#XJ
8BB-L]	8B-	8ddL]	[2gg
8AA	8r	8cc#X	.
8BBn	4r	8dd	.
8C#XJ	.	8eeJ	.
!!LO:LB:g=original
=55	=55	=55	=55
4D	8r	2a	8ggL]
.	8dL	.	8ff#X
8EL	8c#X	.	8gg
8F#XJ	[8cnJ	.	[8aaJ
2G	8cL]	4.d	8aaL]
.	8c	.	8ff#J
.	8Bn	.	4gg
.	8B-XJ	8e	.
=56	=56	=56	=56
2D	8AL	4.f	1r
.	8G#X	.	.
.	8A	.	.
.	8BnJ	8g	.
8CL	4c	4.a	.
8DJ	.	.	.
[4E	[4c#X	.	.
.	.	8g	.
=57	=57	=57	=57
8EL]	4c#]	[2b-	1r
8G	.	.	.
8F	8dL	.	.
8EJ	8eJ	.	.
4D	4f	8b-]	.
.	.	4a	.
4C#X	4e	.	.
.	.	8g	.
=58	=58	=58	=58
[2D	8r	[2f	2dd
.	8AL	.	.
.	8Bn	.	.
.	8c#XJ	.	.
8D]	8dL	8fL]	4.a
4Cn	8AJ	8e	.
.	4D	8f#X	.
8BBn	.	8g#XJ	8bn
=59	=59	=59	=59
2AA	8EL	8aL	4.cc
.	8D#X	8bnJ	.
.	8E	4cc	.
.	8F#XJ	.	8dd
8GGL	4.G	8bL	4.ee
8AAJ	.	8cc#XJ	.
4BB-X	.	4dd	.
.	8G#X	.	8dd
=60	=60	=60	=60
8AAL	4A	8cc#XL	[2ff
8D	.	8ccn	.
8E	4r	8b-	.
8FJ	.	8aJ	.
4G	4r	4b-	8ff]
.	.	.	4ee
4G#X	4e	4bn	.
.	.	.	8dd
!!LO:LB:g=original
=61	=61	=61	=61
8AL	4e	8aL	4cc#X
8B-	.	8g	.
8A	4r	8f#X	[4ccn
8GnJ	.	8aJ	.
4F#X	2r	[2d	8ccL]
.	.	.	8a
8GL	.	.	8bn
8AJ	.	.	8cc#XJ
=62	=62	=62	=62
8B-L	1r	8dL]	[2dd
8c	.	8f#X	.
8B-	.	8g	.
8AJ	.	8aJ	.
8GL	.	8b-L	8ddL]
8F	.	8bn	8dd
8E	.	8cc#X	8ee
8DJ	.	8ddJ	8ffJ
=63	=63	=63	=63
4C#X	2A	8eeL	4.gg
.	.	8dd	.
2Cn	.	8ee-X	.
.	.	8aJ	8ff#X
.	2D	8b-XL	4.gg
.	.	8ccnJ	.
8BBnL	.	[4dd	.
8BB-XJ	.	.	8gg#X
=64	=64	=64	=64
8AAL	2F	4dd]	[2aa
8GG#X	.	.	.
8AA	.	8ccL	.
8BBnJ	.	8bnJ	.
4C	2A	4a	8aaL]
.	.	.	8aa
[4C#X	.	[4ee	8gg
.	.	.	8ffJ
=65	=65	=65	=65
4C#]	2B-	8eeL]	4gg
.	.	8ee	.
8DL	.	8dd	8ffL
8EJ	.	8cc#XJ	8eeJ
4F	4A	8ddL	8ddL
.	.	8a	8cc#X
[4E	4G	8b-	8dd
.	.	8gJ	8eeJ
=66	=66	=66	=66
8EL]	[2F	[2a	8ffL
8AA	.	.	8gg
8BBn	.	.	8ff
8C#XJ	.	.	8eeJ
[2D/	8FL]	8aL]	8ffL
.	8E	8b-	8ggJ
.	8F#X	8a	4aa
.	8GJ	8gJ	.
!!LO:LB:g=original
=67	=67	=67	=67
8DL]	[2A/	8f#XL	[2cc
8Cn	.	8gJ	.
8BB-	.	4a	.
8AAJ	.	.	.
[2BB-	8AL]	[2d	8ccL]
.	8D	.	8f#X
.	8E	.	8g
.	8F#XJ	.	8aJ
=68	=68	=68	=68
8BB-L]	[2G	2d_	2b-
8AA	.	.	.
8BB-	.	.	.
8GGJ	.	.	.
[2D/	8GL]	8dL]	[2a
.	8F#X	8e-X	.
.	8G	8d	.
.	8AJ	8cJ	.
=69	=69	=69	=69
(<1D/]	4B-	8B-L	8aL]
.	.	8d	8f#XJ
.	8AL	8c#X	[4g
.	8GJ	[8enJ	.
.	[2A/	8eL]	8gL]
.	.	8e	8g
.	.	8d	8f#
.	.	8c#J	8eJ
=70	=70	=70	=70
[<1D)	2A/_	4.d	8f#XL
.	.	.	8gJ
.	.	.	4a
.	.	8cn	.
.	8AL]	[2B-	[2d
.	8A	.	.
.	8G	.	.
.	8F#XJ	.	.
=71	=71	=71	=71
2D_<	[1G	8B-L]	4.d]
.	.	8AJ	.
.	.	[2.B-	.
.	.	.	8c#X
8DL]	.	.	[2d
8AA	.	.	.
8BB-	.	.	.
8GGJ	.	.	.
=72	=72	=72	=72
1DD;	8GL]	8B-L]	1d;]
.	8F#X	8A	.
.	8G	8B-	.
.	8EJ	8GJ	.
.	2F#;	2A;	.
==	==	==	==
*-	*-	*-	*-
!!!RDF**kern: > = above
!!!RDF**kern: < = below
!!!system-decoration: [(s1,s2,s3,s4)]
!!!URL-pdf: https://vmirror.imslp.org/files/imglnks/usimg/8/88/IMSLP504269-PMLP05843-BGA-25.1.pdf#page=10 @{SMS1}, page 10
!!!URL-pdf: https://s9.imslp.org/files/imglnks/usimg/1/1d/IMSLP469177-PMLP5843-Bach,_J.S._-_The_Art_of_the_Fugue.pdf#page=10 @{SMS2}, page 10
!!!URL-youtube: https://www.youtube.com/watch?v=OMtjlaDEMdI&t=437s Netherlands Bach Society/Malinowski
!!!URL-youtube: https://www.youtube.com/watch?v=N6sUlZa-IrU&t=437s Netherlands Bach Society
!!!SMS: @{SMS1}
!!!SMS1: Bach-Gesellschaft Ausgabe, Band 25.1 Leipzig: Breitkopf und Härtel, 1878. Plate B.W. XXV (1).
!!!SMS2: Bach-Gesellschaft Ausgabe, Band 47 Leipzig: Breitkopf und Härtel, 1926. Plate B.W. XLVII.
!!!PED: Wilhelm Rust
!!!PED-ODT: 1822-1892
!!!ONB: Die Kunst der Fuge nach dem Berliner Autograph in Anordnung und Lesarten
!!!ENC: Craig Stuart Sapp
!!!END: 2024/03/21
!!!EED: Craig Stuart Sapp
!!!EEV: 2024/03/28
!!!title: @{OPR} (@{SCA}), @{OTL}
!!!filter-keyboard: autostem -r | satb2gs | shed -e s/clefC./clefG2/I
!!!filter-modern: modori -m | autostem -r
